X: 26222
T: Medyatsiner
R: jig
M: 6/8
K: Eminor
z2> A2 B2|e2-e _e=e/f/e/f/|g2- g fg/a/g/f/|g2> f2eg|f4 B2|
e2 f2 g2|a2 g2 f2|e2 e gfa|
g2> z2 B2|e2 e _e=e/f/e/f/|g2 g fg/a/g/f/|
g2> f2eg|f4 b2|b2 _b2-bg|
g2 f2 b_e|e2> g2bg|e2> z2 B2|
e2 e _e=e/f/e/f/|g2 g fg/a/g/f/|g2> f2eg|
f2> z2 B2|eef fgg|a2 g2 f2|
e2 z gfa|g2> z2 B2|e2 e de/f/e/f/|
g2 g fg/a/g/f/|g2> f2eg|f4 b2|
b2 _b2- bg|g2 f2 b_e|e2> g2bg|
e2 z ef>e||d2 g2 b2|d'4 b2|
g2 f gd'>c'|b4- b z|d2 g2 b2|
d'4 b2|g2 f ga>_b|a4 zd'|
d'^c'd' c'_ba|^c'_b a2> =b2|b_b=b agf|
_ba g2> z2|d'^c'd' c'_ba|^c'_b a2> =b2|
baa ggf|e6|

